images/zhuyin/37.svg

<svg width="50" height="50" viewBox="0 0 50 50" fill="none" xmlns="http://www.w3.org/2000/svg">
<path d="M19.6562 16.3672C20.1094 16.3672 20.6875 16.625 21.3906 17.1406C21.8594 17.4844 22.0938 17.8125 22.0938 18.125C22.0938 18.1562 21.9766 18.3906 21.7422 18.8281C21.5391 19.2344 21.3672 20.4688 21.2266 22.5312C21.0078 24.7188 20.4141 26.7891 19.4453 28.7422C18.7891 30.1797 17.8672 31.4297 16.6797 32.4922C16.1016 32.9141 15.7188 33.125 15.5312 33.125C15.4062 33.125 15.3438 33.0625 15.3438 32.9375C15.3438 32.875 15.5391 32.5938 15.9297 32.0938C17.0391 30.8281 17.9375 29.0859 18.625 26.8672C19.375 24.7109 19.75 22.5547 19.75 20.3984C19.75 19.1484 19.6719 18.2109 19.5156 17.5859C19.2969 17.1016 19.1875 16.8125 19.1875 16.7188C19.1875 16.4844 19.3438 16.3672 19.6562 16.3672ZM24.8125 15.5234C25.3125 15.5234 25.9141 15.7578 26.6172 16.2266C27.1641 16.6641 27.4375 17.0859 27.4375 17.4922C27.4375 17.6016 27.3438 17.7891 27.1562 18.0547C26.9531 18.4609 26.8359 18.9062 26.8047 19.3906C26.5391 23.1406 26.4062 26.375 26.4062 29.0938C26.4062 30.4844 26.5469 31.3203 26.8281 31.6016C27.1094 31.8672 27.625 32 28.375 32C29.2656 32 30.2734 31.8672 31.3984 31.6016C31.9609 31.4453 32.3594 31.3672 32.5938 31.3672C33.0938 31.3672 33.5547 31.5234 33.9766 31.8359C34.3672 32.1484 34.5625 32.4219 34.5625 32.6562C34.5625 32.9688 34.1797 33.2031 33.4141 33.3594C32.5391 33.4062 31.4766 33.4297 30.2266 33.4297H28.8438C27.2656 33.4297 26.1953 33.1953 25.6328 32.7266C25.0859 32.2734 24.8125 31.4375 24.8125 30.2188V18.7812C24.8125 17.9375 24.7422 17.1953 24.6016 16.5547C24.3672 16.1797 24.25 15.9531 24.25 15.875C24.25 15.6406 24.4375 15.5234 24.8125 15.5234Z" fill="#333333"/>
<path d="M21.7422 18.8281L21.3013 18.5919L21.295 18.6045L21.7422 18.8281ZM21.2266 22.5312L21.7241 22.581L21.7249 22.5731L21.7254 22.5653L21.2266 22.5312ZM19.4453 28.7422L18.9974 28.52L18.9938 28.5272L18.9905 28.5345L19.4453 28.7422ZM16.6797 32.4922L16.9744 32.8961L16.9945 32.8814L17.0131 32.8648L16.6797 32.4922ZM15.9297 32.0938L15.5537 31.7642L15.5444 31.7748L15.5357 31.7859L15.9297 32.0938ZM18.625 26.8672L18.1528 26.7029L18.1499 26.711L18.1474 26.7192L18.625 26.8672ZM19.5156 17.5859L20.0007 17.4647L19.9898 17.4211L19.9713 17.3801L19.5156 17.5859ZM26.6172 16.2266L26.9295 15.8361L26.9126 15.8226L26.8945 15.8105L26.6172 16.2266ZM27.1562 18.0547L26.7478 17.7663L26.726 17.7972L26.709 17.8311L27.1562 18.0547ZM26.8047 19.3906L27.3034 19.426L27.3036 19.4228L26.8047 19.3906ZM26.8281 31.6016L26.4746 31.9551L26.4796 31.9602L26.4848 31.9651L26.8281 31.6016ZM31.3984 31.6016L31.5133 32.0882L31.5228 32.0859L31.5323 32.0833L31.3984 31.6016ZM33.9766 31.8359L34.2889 31.4455L34.2816 31.4397L34.2742 31.4342L33.9766 31.8359ZM33.4141 33.3594L33.4408 33.8587L33.4778 33.8567L33.514 33.8493L33.4141 33.3594ZM25.6328 32.7266L25.9529 32.3425L25.9518 32.3416L25.6328 32.7266ZM24.6016 16.5547L25.0899 16.4475L25.0714 16.363L25.0256 16.2897L24.6016 16.5547ZM19.6562 16.8672C19.9422 16.8672 20.4102 17.0417 21.0949 17.5438L21.6863 16.7374C20.9648 16.2083 20.2765 15.8672 19.6562 15.8672V16.8672ZM21.0949 17.5438C21.5396 17.8699 21.5938 18.0675 21.5938 18.125H22.5938C22.5938 17.5575 22.1791 17.0988 21.6863 16.7374L21.0949 17.5438ZM21.5938 18.125C21.5938 18.0627 21.6061 18.0165 21.6083 18.008C21.6125 17.9919 21.6164 17.981 21.6174 17.9781C21.6196 17.972 21.6195 17.9729 21.6143 17.9847C21.6045 18.007 21.5867 18.0445 21.5586 18.1006C21.5032 18.2114 21.418 18.3744 21.3014 18.592L22.1829 19.0642C22.3007 18.8443 22.3913 18.6714 22.4531 18.5478C22.4836 18.4868 22.5098 18.4325 22.5292 18.3883C22.5387 18.3669 22.5496 18.341 22.5591 18.3144C22.5638 18.3013 22.5704 18.2816 22.5765 18.2584C22.5805 18.2429 22.5938 18.1912 22.5938 18.125H21.5938ZM21.295 18.6045C21.1514 18.8916 21.0504 19.3815 20.9657 19.9896C20.8775 20.6235 20.7984 21.4608 20.7277 22.4972L21.7254 22.5653C21.7954 21.5392 21.8725 20.7281 21.9562 20.1275C22.0434 19.5013 22.1298 19.1709 22.1894 19.0517L21.295 18.6045ZM20.729 22.4815C20.5162 24.6095 19.9391 26.6214 18.9974 28.52L19.8932 28.9644C20.889 26.9568 21.4994 24.828 21.7241 22.581L20.729 22.4815ZM18.9905 28.5345C18.3631 29.9087 17.4828 31.1027 16.3463 32.1196L17.0131 32.8648C18.2516 31.7567 19.215 30.4507 19.9002 28.9498L18.9905 28.5345ZM16.385 32.0883C16.1037 32.2935 15.8827 32.438 15.7177 32.5289C15.6352 32.5743 15.5753 32.6016 15.535 32.6165C15.4892 32.6335 15.4936 32.625 15.5312 32.625V33.625C15.6626 33.625 15.7853 33.5902 15.8819 33.5544C15.9843 33.5166 16.0913 33.4647 16.2003 33.4047C16.4181 33.2847 16.6776 33.1127 16.9744 32.8961L16.385 32.0883ZM15.5312 32.625C15.5458 32.625 15.6486 32.629 15.7442 32.7246C15.8398 32.8202 15.8438 32.9229 15.8438 32.9375H14.8438C14.8438 33.0771 14.879 33.2736 15.0371 33.4317C15.1952 33.5898 15.3917 33.625 15.5312 33.625V32.625ZM15.8438 32.9375C15.8438 32.9938 15.8335 33.0359 15.8285 33.0543C15.8228 33.0755 15.8169 33.0901 15.8144 33.0961C15.8097 33.1075 15.8081 33.109 15.8151 33.0966C15.8286 33.0728 15.8555 33.0304 15.9009 32.9649C15.9905 32.8359 16.1302 32.6493 16.3237 32.4016L15.5357 31.7859C15.3386 32.0382 15.1853 32.2423 15.0795 32.3945C15.0274 32.4696 14.9809 32.5405 14.9456 32.6026C14.9283 32.6332 14.9083 32.6708 14.8914 32.7115C14.8806 32.7372 14.8438 32.8254 14.8438 32.9375H15.8438ZM16.3057 32.4233C17.4753 31.089 18.4017 29.277 19.1026 27.0152L18.1474 26.7192C17.4733 28.8948 16.6028 30.5673 15.5537 31.7642L16.3057 32.4233ZM19.0972 27.0314C19.8645 24.8255 20.25 22.6138 20.25 20.3984H19.25C19.25 22.4956 18.8855 24.5964 18.1528 26.7029L19.0972 27.0314ZM20.25 20.3984C20.25 19.1382 20.1722 18.1509 20.0007 17.4647L19.0306 17.7072C19.1715 18.271 19.25 19.1587 19.25 20.3984H20.25ZM19.9713 17.3801C19.8637 17.1418 19.7865 16.9592 19.7372 16.8289C19.7124 16.7634 19.6971 16.7176 19.6888 16.6883C19.6769 16.6467 19.6875 16.6679 19.6875 16.7188H18.6875C18.6875 16.8164 18.7118 16.9089 18.7272 16.963C18.7462 17.0294 18.772 17.1038 18.8019 17.1828C18.862 17.3415 18.9488 17.5457 19.0599 17.7917L19.9713 17.3801ZM19.6875 16.7188C19.6875 16.7152 19.6881 16.7357 19.6737 16.768C19.658 16.8033 19.6328 16.834 19.6047 16.8551C19.5794 16.874 19.5636 16.8764 19.5724 16.8742C19.5818 16.8719 19.6077 16.8672 19.6562 16.8672V15.8672C19.4519 15.8672 19.2075 15.903 19.0047 16.0551C18.7748 16.2275 18.6875 16.4796 18.6875 16.7188H19.6875ZM24.8125 16.0234C25.1668 16.0234 25.6682 16.1948 26.3398 16.6426L26.8945 15.8105C26.1599 15.3208 25.4582 15.0234 24.8125 15.0234V16.0234ZM26.3048 16.617C26.816 17.0259 26.9375 17.3191 26.9375 17.4922H27.9375C27.9375 16.8527 27.5122 16.3022 26.9295 15.8361L26.3048 16.617ZM26.9375 17.4922C26.9375 17.4519 26.9454 17.4311 26.9431 17.4383C26.9415 17.4434 26.9354 17.4604 26.92 17.4912C26.8887 17.5537 26.834 17.6442 26.7478 17.7663L27.5647 18.343C27.666 18.1995 27.7519 18.0634 27.8144 17.9385C27.8698 17.8277 27.9375 17.6672 27.9375 17.4922H26.9375ZM26.709 17.8311C26.474 18.3011 26.341 18.8121 26.3057 19.3584L27.3036 19.4228C27.3309 19.0004 27.4322 18.6208 27.6035 18.2783L26.709 17.8311ZM26.3059 19.3553C26.0398 23.113 25.9062 26.3597 25.9062 29.0938H26.9062C26.9062 26.3903 27.0384 23.1683 27.3034 19.426L26.3059 19.3553ZM25.9062 29.0938C25.9062 29.8017 25.9417 30.3895 26.0186 30.8466C26.0905 31.2737 26.2139 31.6944 26.4746 31.9551L27.1817 31.248C27.1825 31.2488 27.1745 31.2409 27.1606 31.2173C27.1469 31.1938 27.1299 31.1591 27.1113 31.11C27.0737 31.0103 27.0366 30.8699 27.0048 30.6807C26.9411 30.3019 26.9062 29.7765 26.9062 29.0938H25.9062ZM26.4848 31.9651C26.9141 32.3705 27.6021 32.5 28.375 32.5V31.5C27.6479 31.5 27.3046 31.3638 27.1714 31.2381L26.4848 31.9651ZM28.375 32.5C29.3138 32.5 30.3612 32.3602 31.5133 32.0882L31.2835 31.1149C30.1857 31.3742 29.2175 31.5 28.375 31.5V32.5ZM31.5323 32.0833C32.0969 31.9265 32.4354 31.8672 32.5938 31.8672V30.8672C32.2834 30.8672 31.825 30.9641 31.2646 31.1198L31.5323 32.0833ZM32.5938 31.8672C32.981 31.8672 33.3386 31.9856 33.6789 32.2377L34.2742 31.4342C33.7708 31.0613 33.2065 30.8672 32.5938 30.8672V31.8672ZM33.6642 32.2264C33.8393 32.3664 33.9479 32.4802 34.0091 32.566C34.0715 32.6533 34.0625 32.6796 34.0625 32.6562H35.0625C35.0625 32.3985 34.9558 32.1709 34.8229 31.9848C34.6889 31.7971 34.5045 31.6179 34.2889 31.4455L33.6642 32.2264ZM34.0625 32.6562C34.0625 32.569 34.1282 32.5703 34.0143 32.64C33.8962 32.7123 33.6756 32.7957 33.3141 32.8695L33.514 33.8493C33.9181 33.7668 34.2718 33.6549 34.5365 33.4928C34.8054 33.3282 35.0625 33.056 35.0625 32.6562H34.0625ZM33.3873 32.8601C32.5241 32.9063 31.4711 32.9297 30.2266 32.9297V33.9297C31.4821 33.9297 32.554 33.9062 33.4408 33.8587L33.3873 32.8601ZM30.2266 32.9297H28.8438V33.9297H30.2266V32.9297ZM28.8438 32.9297C28.0764 32.9297 27.4528 32.8724 26.9644 32.7655C26.4719 32.6576 26.1495 32.5063 25.9529 32.3425L25.3127 33.1107C25.6787 33.4156 26.1727 33.6158 26.7505 33.7423C27.3324 33.8698 28.033 33.9297 28.8438 33.9297V32.9297ZM25.9518 32.3416C25.5802 32.0336 25.3125 31.3911 25.3125 30.2188H24.3125C24.3125 31.4839 24.5917 32.5132 25.3138 33.1116L25.9518 32.3416ZM25.3125 30.2188V18.7812H24.3125V30.2188H25.3125ZM25.3125 18.7812C25.3125 17.9111 25.2401 17.1317 25.0899 16.4475L24.1132 16.6619C24.2443 17.259 24.3125 17.9639 24.3125 18.7812H25.3125ZM25.0256 16.2897C24.9112 16.1067 24.8315 15.9695 24.782 15.8738C24.757 15.8255 24.7441 15.7962 24.7386 15.7819C24.736 15.775 24.7375 15.7778 24.7401 15.7881C24.7419 15.7953 24.75 15.8276 24.75 15.875H23.75C23.75 15.9924 23.7873 16.0942 23.8053 16.1409C23.8291 16.2029 23.8602 16.2682 23.8938 16.3332C23.9615 16.4641 24.0576 16.6277 24.1776 16.8197L25.0256 16.2897ZM24.75 15.875C24.75 15.884 24.7478 15.9162 24.7263 15.9565C24.7042 15.998 24.6746 16.0235 24.6556 16.0353C24.64 16.0451 24.6395 16.0409 24.6684 16.0349C24.6968 16.029 24.7433 16.0234 24.8125 16.0234V15.0234C24.5891 15.0234 24.3367 15.0554 24.1256 15.1873C23.8754 15.3437 23.75 15.5979 23.75 15.875H24.75Z" fill="#333333"/>
</svg>

<svg xmlns="http://www.w3.org/2000/svg" width="50" height="50" fill="none"><path fill="#333" d="M19.656 16.367c.453 0 1.032.258 1.735.774.468.343.703.672.703.984 0 .031-.117.266-.352.703-.203.406-.375 1.64-.515 3.703a17.862 17.862 0 0 1-1.782 6.211 11.253 11.253 0 0 1-2.765 3.75c-.578.422-.961.633-1.149.633-.125 0-.187-.063-.187-.188 0-.062.195-.343.586-.843 1.11-1.266 2.008-3.008 2.695-5.227.75-2.156 1.125-4.312 1.125-6.469 0-1.25-.078-2.187-.234-2.812-.22-.484-.328-.773-.328-.867 0-.235.156-.352.468-.352Zm5.157-.844c.5 0 1.101.235 1.804.704.547.437.82.859.82 1.265 0 .11-.093.297-.28.563-.204.406-.321.851-.352 1.336-.266 3.75-.399 6.984-.399 9.703 0 1.39.14 2.226.422 2.508.281.265.797.398 1.547.398.89 0 1.898-.133 3.023-.398.563-.157.961-.235 1.196-.235.5 0 .96.156 1.383.469.39.312.586.586.586.82 0 .313-.383.547-1.149.703-.875.047-1.937.07-3.187.07h-1.383c-1.578 0-2.649-.234-3.211-.702-.547-.454-.82-1.29-.82-2.508V18.78c0-.843-.07-1.586-.211-2.226-.235-.375-.352-.602-.352-.68 0-.234.188-.352.563-.352Z"/><path fill="#333" d="m21.742 18.828-.44-.236-.007.013.447.223Zm-.515 3.703.497.05v-.008l.001-.008-.498-.034Zm-1.782 6.211-.448-.222-.003.007-.003.008.454.207Zm-2.765 3.75.294.404.02-.015.02-.016-.334-.373Zm-.75-.398-.376-.33-.01.01-.008.012.394.308Zm2.695-5.227-.472-.164-.003.008-.003.008.478.148Zm.89-9.281.486-.121-.011-.044-.019-.04-.455.205Zm7.102-1.36.313-.39-.017-.013-.018-.013-.278.417Zm.54 1.829-.41-.289-.021.031-.017.034.447.224Zm-.352 1.336.498.035v-.003l-.498-.032Zm.023 12.21-.353.354.005.005.005.005.343-.363Zm4.57 0 .115.487.01-.002.01-.003-.135-.481Zm2.579.235.312-.39-.007-.006-.008-.006-.297.402Zm-.563 1.523.027.5.037-.002.036-.008-.1-.49Zm-7.781-.632.32-.384-.001-.001-.32.385Zm-1.031-16.172.488-.107-.019-.085-.045-.073-.424.265Zm-4.946.312c.286 0 .754.175 1.439.677l.591-.807c-.721-.529-1.41-.87-2.03-.87v1Zm1.439.677c.445.326.499.523.499.581h1c0-.567-.415-1.026-.908-1.388l-.591.807Zm.499.581c0-.062.012-.108.014-.117l.01-.03c.002-.006.002-.005-.004.007-.01.022-.027.06-.055.116-.056.11-.141.273-.258.491l.882.472c.118-.22.208-.393.27-.516a3.713 3.713 0 0 0 .106-.234.533.533 0 0 0 .035-.19h-1Zm-.299.48c-.144.287-.245.776-.33 1.385a37.611 37.611 0 0 0-.237 2.507l.997.068c.07-1.026.147-1.837.231-2.438.087-.626.174-.956.233-1.075l-.894-.447Zm-.566 3.877a17.363 17.363 0 0 1-1.732 6.038l.896.444a18.362 18.362 0 0 0 1.831-6.383l-.995-.1Zm-1.738 6.053a10.755 10.755 0 0 1-2.645 3.585l.667.745A11.753 11.753 0 0 0 19.9 28.95l-.91-.415Zm-2.606 3.553c-.281.206-.502.35-.667.44a1.427 1.427 0 0 1-.183.089c-.046.017-.041.008-.004.008v1c.132 0 .254-.035.35-.07.103-.038.21-.09.32-.15.217-.12.477-.292.773-.509l-.589-.808Zm-.854.537c.015 0 .118.004.213.1.096.095.1.198.1.212h-1c0 .14.035.337.193.495a.687.687 0 0 0 .494.193v-1Zm.313.313a.444.444 0 0 1-.03.158c-.004.012-.006.013.001 0 .014-.023.04-.066.086-.131.09-.13.23-.316.423-.563l-.788-.616c-.197.252-.35.456-.457.608a2.868 2.868 0 0 0-.133.209c-.018.03-.038.068-.055.108a.588.588 0 0 0-.047.227h1Zm.462-.515c1.17-1.334 2.096-3.146 2.797-5.408l-.956-.296c-.674 2.176-1.544 3.848-2.593 5.045l.752.66Zm2.791-5.392c.767-2.205 1.153-4.417 1.153-6.633h-1c0 2.098-.364 4.198-1.097 6.305l.944.328Zm1.153-6.633c0-1.26-.078-2.247-.25-2.933l-.97.242c.142.564.22 1.452.22 2.691h1Zm-.279-3.018c-.107-.238-.184-.42-.234-.551a1.854 1.854 0 0 1-.048-.14c-.012-.042-.002-.021-.002.03h-1c0 .097.025.19.04.244.02.066.045.14.075.22.06.159.147.363.258.609l.911-.412Zm-.284-.661c0-.004.001.017-.013.049a.225.225 0 0 1-.07.087c-.025.019-.04.021-.032.02a.375.375 0 0 1 .084-.008v-1c-.204 0-.448.036-.651.188a.807.807 0 0 0-.317.664h1Zm5.125-.696c.355 0 .856.172 1.528.62l.555-.833c-.735-.49-1.437-.787-2.082-.787v1Zm1.493.594c.511.409.633.702.633.875h1c0-.64-.426-1.19-1.008-1.656l-.625.781Zm.633.875c0-.04.007-.06.005-.054a.404.404 0 0 1-.023.053 2.278 2.278 0 0 1-.172.275l.817.577c.101-.143.187-.28.25-.404.055-.111.122-.272.122-.447h-1Zm-.229.34c-.235.47-.368.98-.403 1.526l.998.065c.027-.423.128-.802.3-1.145l-.895-.447Zm-.403 1.523c-.266 3.758-.4 7.005-.4 9.739h1c0-2.704.132-5.926.397-9.668l-.997-.07Zm-.4 9.739c0 .708.036 1.296.113 1.753.072.427.195.847.456 1.108l.707-.707s-.008-.007-.021-.03a.727.727 0 0 1-.05-.108c-.037-.1-.074-.24-.106-.43-.064-.378-.099-.904-.099-1.586h-1Zm.579 2.871c.43.405 1.117.535 1.89.535v-1c-.727 0-1.07-.136-1.204-.262l-.686.727Zm1.89.535c.939 0 1.986-.14 3.138-.412l-.23-.973c-1.097.26-2.066.385-2.908.385v1Zm3.157-.417c.565-.156.903-.216 1.062-.216v-1c-.31 0-.769.097-1.33.253l.268.963Zm1.062-.216c.387 0 .745.119 1.085.37l.595-.803a2.773 2.773 0 0 0-1.68-.567v1Zm1.07.36c.175.14.284.253.345.339.063.087.053.114.053.09h1c0-.258-.106-.485-.24-.671a2.8 2.8 0 0 0-.533-.54l-.625.781Zm.398.43c0-.088.066-.087-.048-.017-.118.072-.338.156-.7.23l.2.98c.404-.083.758-.195 1.022-.357.27-.165.526-.437.526-.837h-1Zm-.675.203c-.863.046-1.916.07-3.16.07v1c1.255 0 2.327-.024 3.214-.071l-.054-.999Zm-3.16.07h-1.383v1h1.383v-1Zm-1.383 0c-.768 0-1.391-.058-1.88-.164-.492-.108-.814-.26-1.011-.423l-.64.768c.366.305.86.505 1.438.631.581.128 1.282.188 2.093.188v-1Zm-2.892-.588c-.372-.308-.64-.95-.64-2.123h-1c0 1.265.28 2.294 1.002 2.893l.638-.77Zm-.64-2.123V18.78h-1V30.22h1Zm0-11.438c0-.87-.072-1.65-.222-2.333l-.977.214c.131.597.2 1.302.2 2.12h1Zm-.286-2.491a6.337 6.337 0 0 1-.244-.416 1.015 1.015 0 0 1-.043-.092c-.003-.007-.002-.004.001.006.002.007.01.04.01.087h-1c0 .117.037.22.055.266.024.062.055.127.089.192.068.131.164.295.284.487l.848-.53Zm-.276-.415a.184.184 0 0 1-.024.082.21.21 0 0 1-.07.078c-.016.01-.016.006.012 0a.732.732 0 0 1 .145-.012v-1c-.224 0-.476.032-.687.164a.79.79 0 0 0-.376.688h1Z"/></svg>
